icons/ui_secure.svg

<svg width="48" height="48" viewBox="0 0 48 48" fill="none" xmlns="http://www.w3.org/2000/svg">
<path d="M15 26H32.9999V24H15V26Z" fill="black"/>
<path d="M32.9999 31H15V29H32.9999V31Z" fill="black"/>
<path d="M15 36H32.9999V34H15V36Z" fill="black"/>
<path fill-rule="evenodd" clip-rule="evenodd" d="M39 20C39 18.8954 38.1046 18 37 18H35V17C35 10.9249 30.0751 6 24 6C17.9249 6 13 10.9249 13 17V18H11C9.89543 18 9 18.8954 9 20V40C9 41.1046 9.89543 42 11 42H37C38.1046 42 39 41.1046 39 40V20ZM15 17C15 12.0294 19.0294 8 24 8C28.9706 8 33 12.0294 33 17V18H31V17C31 13.134 27.866 10 24 10C20.134 10 17 13.134 17 17V20H37V40H11L11 20H15V17ZM24 12C26.7614 12 29 14.2386 29 17V18H19V17C19 14.2386 21.2386 12 24 12Z" fill="black"/>
</svg>

<svg
  xmlns="http://www.w3.org/2000/svg"
  width="24"
  height="24"
  viewBox="0 0 24 24"
  fill="none"
  stroke="currentColor"
  stroke-width="2"
  stroke-linecap="round"
  stroke-linejoin="round"
>
  <path d="M15 26h18v-2H15z" />
  <path d="M33 31H15v-2h18z" />
  <path d="M15 36h18v-2H15z" />
  <path
    fill-rule="evenodd"
    d="M39 20a2 2 0 0 0-2-2h-2v-1c0-6.075-4.925-11-11-11s-11 4.925-11 11v1h-2a2 2 0 0 0-2 2v20a2 2 0 0 0 2 2h26a2 2 0 0 0 2-2zm-24-3a9 9 0 1 1 18 0v1h-2v-1a7 7 0 1 0-14 0v3h20v20H11V20h4zm9-5a5 5 0 0 1 5 5v1H19v-1a5 5 0 0 1 5-5"
    clip-rule="evenodd"
  />
</svg>
